X: 101
T: the Nosegay
%R: jig
B: Stewart "A Select Collection of Airs, Jigs, Marches and Reels", ca.1784, p.49 #101
F: http://imslp.org/wiki/A_Select_Collection_of_Airs,_Jigs,_Marches_and_Reels_%28Various%29
Z: 2017 John Chambers <jc:trillian.mit.edu>
M: 6/8
L: 1/8
K: G
c |\
(B/c/d).d (e/f/g).e | dBd cBA | Ace dFA | GFE D2c |\
(B/c/d)d (e/f/g)e | dBd cBA | Ace dFA | GGG G2 :|
|: d |\
ece fdf | gfe dcB | Ace dFA | GFE D2d |\
ece fdf | gfe dcB | Ace dFA | GGG G2 :|
